X: 19832
T: Jerry O'Sullivan's
R: reel
M: 4/4
K: Gmajor
z|G2 G>B A>GA>B|G>ED>E A<A A2|
G2 G>B A>GA>B|G>ED>E G<G G:|
d|d>eg>B A>GA>B|d>eg>B A<A A2|
d>eg>B A>GA>B|G>ED>E G<G G:|

